X: 5
T: John Brennan's
R: reel
M: 4/4
L: 1/8
K: Dmaj
D2FA d2ed|cdBc AF~F2|BAGB ADFA|BAGF EGFE|
D2FA d2ed|cdBc AF~F2|BAGB ABde|faeg fdd2:|
f2df efde|fedB AF~F2|BAGB ADFA|BAGF EFGA|
f2df e2de|fedB AF~F2|BAGB ABde|faea fdde|
f2df efde|fedB AF~F2|BAGB ADFA|BAGF EGFE|
D2FA d2ed|cdBc AF~F2|BAGB ABde|faeg fdd2||


Tune 404	Setting 13253

